X: 100027
M: C|
L: 1/8
K: G
(uB>A) |\
|: ((3udef) |\
gGBd gfed | eEGB edcB | (AG)AB (cB)cd | egFA GFdf |
gGBd gfed | eEGB edcB | F2 (3gfe (3ded (3cBA | G2B2 G2 :|


